X: 22146
T: Kylebrack Rambler, The
R: reel
M: 4/4
K: Dmixolydian
DA,~A,2 DA,=FA,|DA,~A,2 CA,G,A,|DA,~A,2 D3E|FGAF G2FG|
Adde dcAB|cGAc GECE|DCA,G, A,D~D2|1 FAGE D2DE:|2 FAGE D2FG:|
AFGA FD~D2|d3c AGAB|c2Gc EcGc|cded cAGA|
d2fd dA ~A2|^cA~A2 EA~A2|GE~E2 CDEG|cAGE D2FG:|
AD~D2 A,D~D2|dA~A2 dcAB|c2Bd cAGE|CcBd cAGE|
FD~D2 A,D~D2|dA~A2 dcAB|c2Bd cAGE|CEGE D2DE:|

